X:1
T:Doctor bonus, amicus Dei
T:Tomás Luis de Victoria
%%score [ 1 2 3 4 ]
L:1/8
Q:1/4=200
M:4/2
K:C
V:1 treble nm="Sopran"
V:2 treble nm="Alt"
V:3 treble-8 nm="Tenor"
V:4 bass nm="Bass"
V:1
 G12 G4 | A8 G8 | z4 G4 c4 c4 | B4 A4- A2 GF E2 F2 | G8 A4 c4- | c4 B2 A2 B2 A2 G2 F2 | E6 DC D8 | %7
w: Do- ctor|bo- nus|a- mi- cus|De- * * * * * *|* i An-|* * * dre- * * *||
 E16 | z4 A4 c4 c4 | B4 c4 A8 | z16 | z4 G4 c8- | c8 B4 G4- | G4 G4 A8 | G4 B8 B4 | c8 B8 | %16
w: as,|a- mi- cus|De- * i||An- dre-|* as, do-|* ctor bo-|nus, do- ctor|bo- nus|
 z4 G4 G4 G4 | A8 G4 E4 | F6 G2 A4 G4- | G4 ^F2 E2 F8 | G16 | z4 G8 E4 | C4 C4 c8 | d8 G8- | %24
w: a- mi- cus|De- i An-|dre- * * *||as|du- ci-|tur ad cru-|* cem|
 G8 z8 | z4 G4 c6 c2 | c8 d8 | e6 d2 c2 B2 A4- | A4 G2 F2 E4 ^F4 | G6 FG A4 G4- | G4 ^F4 G8- | %31
w: _|A- spi- ci-|ens a|lon- * * * *|||* * ge,|
 G8 z4 D4 | G6 G2 A4 B4 | c8 B8 | B16 | c16 | d8 B8 | c6 BA G8 | A16 | D8 z8 | G16- | G16 | G16 | %43
w: _ a-|spi- ci- ens a|lon- ge,|vi-|dit|cru- cem|et _ _ _|di-|xit:|Sal-||ve|
 ^F8 G8 | A8 G8 | z4 G4- G2 F2 E2 D2 | C4 E4 D8 | z8 d8- | d8 c8- | c8 d8- | d8 G8 | A8 z8 | %52
w: crux, sal-|* ve|sal- * * * *|* ve crux,|sal-|||* ve|crux,|
 z8 z4 c4- | c4 c4 B8 | A8 G8 | F8 E8 | F8 E4 C4 | D8 z4 G4- | G4 G4 E8 | C4 c4- c2 B2 A2 G2 | %60
w: su-|* sci- pe|di- sci-|pu- lum|e- * *|ius qui|_ pe- pen-|dit in _ _ _ _|
 A4 G8 ^F4 | G16 | z8 z4 G4 | A4 B4 c8- | c4 B4 A8 | G8 z4 D4 | E4 F4 G8- | G4 F4 E8 | D8 z8 | %69
w: _ _ _|te|ma-|gi- ster me-|* us Chri-|stus, ma-|gi- ster me-|* us Chri-|stus,|
 z4 G4 A4 B4 | c12 B4 | A8 G8 | z4 D4 E4 F4 | G12 F4 | E2 F2 G2 E2 ^F4 G4- | G4 ^F4 G8- | G16 |] %77
w: ma- gi- ster|me- us|Chri- stus,|ma- gi- ster|me- *|us _ _ _ _ Chri-|* * stus.|_|
V:2
 z16 | z16 | C12 C4 | D8 C8 | z4 C4 F4 F4 | E4 D2 C2 D8 | C4 C8 B,4 | C8 G,4 G4- | G4 F4 E4 G4- | %9
w: ||Do- ctor|bo- nus|a- mi- cus|De- * * *|i An- *|dre- as, a-|* mi- cus De-|
 G2 F2 E2 D2 C2 B,2 A,4 | G,4 D4- D2 E2 F4 | E4 D4 z4 C4- | C4 C4 D8 | C4 E4 F4 F4 | E4 D2 C2 D8 | %15
w: |i An- * * *|dre- as, do-|* ctor bo-|nus, a- mi- cus|De- * * *|
 C4 C4 G4 G4 | F4 E4 D8 | z4 A,4 B,4 ^C4 | D8 E8 | D8 z4 D4- | D4 B,4 G,4 D4 | E6 D2 E2 F2 G2 E2 | %22
w: i, a- mi- cus|De- * i|An- dre- *||as du-|* ci- tur ad|cru- * * * * *|
 F2 G2 A8 G4 | F12 E2 D2 | E8 A,8 | z8 z4 C4 | F6 F2 F8 | G8 A6 G2 | F4 E4- E2 D2 C4- | C4 B,4 C8 | %30
w: ||* cem|A-|spi- ci- ens|a lon- *|||
 A,8 z4 G,4 | C6 C2 C4 D4 | E2 D2 C2 B,2 A,2 G,2 G,4- | G,4 ^F,4 G,8 | z8 G8 | E8 A8 | F8 D8 | %37
w: ge, a-|spi- ci- ens a|lon- * * * * * *|* * ge,|vi-|dit cru-|cem et|
 E12 D4 | C16 | B,8 z8 | E16 | D16 | E16 | A,4 D4- D2 C2 D2 E2 | F8 E4 D2 C2 | D4 D4 E4 G2 F2 | %46
w: di- *||xit:|Sal-|||ve, sal- * * * *||* ve crux, sal- *|
 E2 D2 C2 B,2 A,4 A,4 | B,6 C2 D8- | D8 z4 A4- | A4 G4 F8- | F4 F4 E4 C4- | C4 C4 D4 B,4 | %52
w: * * * * * ve|crux, _ _|_ sal-||* ve crux su-|* sci- pe di-|
 C4 A,4 B,4 G,4- | G,4 ^F,4 G,8 | z4 D8 E4 | C4 D4 B,4 C4 | A,4 D4- D2 C2 C4- | %57
w: sci- pu- lum e-|* * ius|su- sci-|pe di- sci- pu-|lum e- * * *|
 C4 B,2 A,2 B,2 C2 D4 | G,4 G8 G4 | E8 C4 C4 | A,4 B,4 C8 | D8 z4 D4 | C4 D4 E8 | A,4 D4 E4 ^F4 | %64
w: |ius, qui pe-|pen- dit in|_ _ _|te ma-|gi- ster me-|us, ma- gi- ster|
 G12 F4 | E8 D8 | z4 A,4 B,4 ^C4 | D6 C2 A,2 B,2 C4 | G,4 D4 C4 D4 | E12 D4 | C6 D2 E2 F2 G4- | %71
w: me- us|Chri- stus,|ma- gi- ster|me- * * * *|us, ma- gi- ster|me- us|Chri- * * * *|
 G4 F4 E8 | D8 z4 A,4 | B,4 ^C4 D8 | E8 D8- | D8 D8- | D16 |] %77
w: |stus, ma-|gi- ster me-|us Chri-|* stus.|_|
V:3
 z16 | z16 | z16 | z16 | z16 | G12 G4 | A8 G8 | z4 G4 c4 c4 | B4 A4- A2 GF E2 F2 | G8 A4 c4- | %10
w: |||||Do- ctor|bo- nus|a- mi- cus|De- * * * * * *|* i An-|
 c4 B2 A2 B4 A4- | A2 G2 G8 ^F2 E2 | ^F4 E4 G8 | E4 C4 F2 G2 A2 B2 | c4 B2 A2 B2 c2 d2 B2 | %15
w: * dre- * * *|||as, a- mi- * * *||
 e6 c2 d4 e4 | d4 c8 B4 | c8 z4 G4 | A4 B4 c8 | B4 A2 G2 A8 | G4 d8 B4 | G4 B4 c6 B2 | %22
w: * * * cus|De- * *|i An-|dre- * *||as du- ci-|tur ad cru- *|
 A4 F2 G2 A2 B2 c4- | c4 B4 c4 G4 | c6 c2 c4 c4 | d4 e4- e2 d2 c2 B2 | A2 G2 c4- c2 B2 B2 A2 | %27
w: |* * cem A-|spi- ci- ens a|lon- * * * * *||
 c8 c8 | z4 G4 c6 c2 | d4 d4 e8- | e4 d2 c2 B2 A2 G2 F2 | E2 D2 E4- E2 C2 G4- | G2 F2 E2 D2 E4 D4 | %33
w: * ge|a- spi- ci-|ens a lon-||||
 C8 D4 d4- | d4 B8 e4- | e4 c8 A4- | A4 d4- d2 c2 B2 A2 | G6 F2 E2 D2 G4- | G4 ^F2 E2 F8 | G8 z8 | %40
w: * ge, vi-|* dit cru-|* cem et|_ di- * * * *|||xit:|
 z8 c8- | c4 B2 A2 B2 c2 d4- | d4 ^c2 B2 c4 c4 | d8 B8 | c4 d4- d2 c2 c4- | c4 B4 c4 C2 D2 | %46
w: Sal-||* * * * ve|crux, sal-||* ve crux, sal- *|
 E2 F2 G8 ^F4 | G4 B8 A2 G2 | A4 B4 c2 B2 A2 G2 | A2 B2 c8 B2 A2 | B4 B4 c8 | z4 F6 F2 G4 | %52
w: * * * ve|crux, sal- * *|||* ve crux,|su- sci- pe|
 E4 F4 D4 E4 | C8 D4 d4- | d4 d4 B4 c4 | A4 _B4 G4 A4 | D2 E2 F2 G2 A8 | G4 d4 d4 B4- | B4 G8 c4- | %59
w: di- sci- pu- lum|e- ius, su-|* sci- pe di-|sci- pu- lum e-||ius, qui pe- pen-|* dit in|
 c2 BA G4 A6 B2 | c2 d2 e4- e2 d2 c4- | c4 B2 A2 B4 G4 | A4 B4 c8- | c4 B4 A8 | G8 z4 d4- | %65
w: _ _ _ _ _ _||* te, _ _ ma-|gi- ster me-|* us Chri-|stus, Chri-|
 d2 c2 c8 B2 A2 | B2 c2 d4 G4 G4 | A4 B4 c8- | c4 B4 A8 | G8 z4 D4 | E4 ^F4 G8 | D4 d4- d2 c2 c4- | %72
w: |* * * stus, ma-|gi- ster me-|* us Chri-|stus ma-|gi- ster me-|us Chri- * * *|
 c4 B2 A2 B4 A4 | z4 G4 A4 B4 | c12 B4 | A8 G8- | G16 |] %77
w: * * * * stus,|ma- gi- ster|me- us|Chri- stus.|_|
V:4
 z16 | z16 | z16 | z16 | z16 | z16 | z16 | C,12 C,4 | D,8 C,8 | z4 C,4 F,4 F,4 | E,4 D,2 C,2 D,8 | %11
w: |||||||Do- ctor|bo- nus|a- mi- cus|De- * * *|
 C,4 B,,4 A,,8- | A,,8 G,,8 | z16 | z4 G,8 G,4 | A,8 G,8 | z4 C,4 G,4 G,4 | F,8 E,4 E,4 | D,8 C,8 | %19
w: i An- dre-|* as,||do- ctor|bo- nus|a- mi- cus|De- i An-|dre- *|
 D,16 | G,,8 z4 G,4- | G,4 E,4 C,4 C,4 | F,12 E,4 | D,8 C,8 | z4 C,4 F,6 F,2 | F,4 G,4 A,6 G,2 | %26
w: |as du-|* ci- tur ad|cru- *|* cem|A- spi- ci-|ens a lon- *|
 F,2 E,2 F,4 D,8 | C,4 C,4 F,6 F,2 | F,4 G,4 A,8 | G,4 G,,4 C,6 C,2 | C,4 D,4 E,6 D,2 | %31
w: |ge, a- spi- ci-|ens a lon-|ge, as- pi- ci-|ens a lon- *|
 C,2 B,,2 C,8 B,,4 | C,12 B,,4 | A,,8 G,,8 | G,8 E,8 | A,8 F,8 | D,8 G,6 F,2 | E,2 D,2 C,8 B,,4 | %38
w: ||* ge,|vi- dit|cru- cem|et di- *||
 A,,16 | G,,8 z8 | C,16 | G,,8 G,6 F,2 | E,12 E,4 | D,8 G,8 | F,8 G,8- | G,8 C,8- | C,8 D,8 | %47
w: |xit:|Sal-|ve, sal- *|* ve|crux, sal-||* ve|_ crux|
 z4 G,8 ^F,2 E,2 | ^F,4 G,4 A,2 G,2 =F,2 E,2 | F,4 E,4 D,8- | D,4 D,4 C,8 | F,6 F,2 D,4 E,4 | %52
w: sal- * *|||* ve crux,|su- sci- pe di-|
 C,4 D,4 B,,4 C,4 | A,,8 G,,8 | z16 | z16 | z16 | z4 G,8 G,4 | E,8 C,8- | C,8 F,8- | F,4 E,4 A,8 | %61
w: sci- pu- lum e-|* ius||||qui pe-|pen- dit|_ in|_ _ _|
 G,16 | z16 | z16 | z8 D,8 | E,4 F,4 G,8- | G,4 F,4 E,8 | D,8 z8 | z4 G,,4 A,,4 B,,4 | C,12 B,,4 | %70
w: te|||ma-|gi- ster me-|* us Chri-|stus,|ma- gi- ster|me- us|
 A,,8 G,,8 | z4 D,4 E,4 F,4 | G,12 F,4 | E,8 D,8 | C,8 D,8- | D,8 G,,8- | G,,16 |] %77
w: Chri- stus,|ma- gi- ster|me- us|Chri- *|stus, Chri-|* stus.|_|

